X: 627
T: Msza na 4 m?skie g?osy zebrana – Kyrie
C: Anonim
L: 1/4
M: C
N: Derived from pl-kk--kk-i-382--042-001_anonim--msza-na-4-meskie-glosy-zebrana-kyrie.krn
%%staves [1 2 3 4]
V: 1 clef=treble
V: 2 clef=treble
V: 3 clef=bass
V: 4 clef=bass
K: A
[V:1] ccBB | 
[V:2] EEDD | 
[V:3] A,A,G,G, | 
[V:4] A,A,E,E, | 
[V:1] A2E2 | 
[V:2] C2C2 | 
[V:3] A,2A,2 | 
[V:4] A,,2A,,2 | 
[V:1] FGAc | 
[V:2] DEEE | 
[V:3] A,B,A,A, | 
[V:4] D,-D,C,A,, | 
[V:1] B4 | 
[V:2] E2E2 | 
[V:3] G,2G,2 | 
[V:4] E,2E,2 | 
[V:1] ccdc | 
[V:2] EEEE | 
[V:3] A,A,B,A, | 
[V:4] A,A,G,A, | 
[V:1] B!fermata!Be2 | 
[V:2] E!fermata!EE2 | 
[V:3] G,G,A,2 | 
[V:4] E,!fermata!E,C,2 | 
[V:1] AdcB | 
[V:2] FFE-E | 
[V:3] A,A,A,D | 
[V:4] D,D,E,E, | 
[V:1] A4 |]  
[V:2] E4 |]  
[V:3] C4 |]  
[V:4] [A,4A,,4] |]  

